packages/kaspersky-hexa-ui-icons/src/iconsSVGs/28x20/FlagKz.svg

<svg width="28" height="20" viewBox="0 0 28 20" fill="none" xmlns="http://www.w3.org/2000/svg">
<g clip-path="url(#clip0_5138_1140)">
<rect width="28" height="20" rx="2" fill="white"/>
<mask id="mask0_5138_1140" style="mask-type:luminance" maskUnits="userSpaceOnUse" x="0" y="0" width="28" height="20">
<rect width="28" height="20" rx="2" fill="white"/>
</mask>
<g mask="url(#mask0_5138_1140)">
<rect width="28" height="20" fill="#30C6E0"/>
<circle cx="14" cy="10" r="4" fill="#FFCD4B"/>
<path fill-rule="evenodd" clip-rule="evenodd" d="M12.3682 17.1495L14 14.7136L15.6318 17.1495L16.0451 14.2468L18.5722 15.7334L17.6852 12.9389L20.6071 13.1818L18.5954 11.0489L21.3333 10L18.5954 8.95112L20.6071 6.81818L17.6852 7.06111L18.5722 4.26657L16.0451 5.75318L15.6318 2.85052L14 5.28638L12.3682 2.85052L11.9548 5.75318L9.42773 4.26657L10.3147 7.06111L7.39288 6.81818L9.40456 8.95112L6.66666 10L9.40456 11.0489L7.39288 13.1818L10.3147 12.9389L9.42773 15.7334L11.9548 14.2468L12.3682 17.1495ZM14 14.6667C16.5773 14.6667 18.6667 12.5773 18.6667 10C18.6667 7.42267 16.5773 5.33333 14 5.33333C11.4227 5.33333 9.33332 7.42267 9.33332 10C9.33332 12.5773 11.4227 14.6667 14 14.6667Z" fill="#FFCD4B"/>
<path fill-rule="evenodd" clip-rule="evenodd" d="M1.33334 1.66667C1.33334 1.48257 1.48258 1.33334 1.66668 1.33334H2.33334C2.51744 1.33334 2.66668 1.48257 2.66668 1.66667V2.33334C2.66668 2.51743 2.51744 2.66667 2.33334 2.66667H1.66668C1.48258 2.66667 1.33334 2.51743 1.33334 2.33334V1.66667ZM1.33334 4.33334C1.33334 4.14924 1.48258 4 1.66668 4H2.33334C2.51744 4 2.66668 4.14924 2.66668 4.33334V5C2.66668 5.1841 2.51744 5.33334 2.33334 5.33334H1.66668C1.48258 5.33334 1.33334 5.1841 1.33334 5V4.33334ZM1.66668 6.66667C1.48258 6.66667 1.33334 6.81591 1.33334 7V7.66667C1.33334 7.85076 1.48258 8 1.66668 8H2.33334C2.51744 8 2.66668 7.85076 2.66668 7.66667V7C2.66668 6.81591 2.51744 6.66667 2.33334 6.66667H1.66668ZM1.33334 9.66667C1.33334 9.48257 1.48258 9.33334 1.66668 9.33334H2.33334C2.51744 9.33334 2.66668 9.48257 2.66668 9.66667V10.3333C2.66668 10.5174 2.51744 10.6667 2.33334 10.6667H1.66668C1.48258 10.6667 1.33334 10.5174 1.33334 10.3333V9.66667ZM1.66668 12C1.48258 12 1.33334 12.1492 1.33334 12.3333V13C1.33334 13.1841 1.48258 13.3333 1.66668 13.3333H2.33334C2.51744 13.3333 2.66668 13.1841 2.66668 13V12.3333C2.66668 12.1492 2.51744 12 2.33334 12H1.66668ZM1.33334 15C1.33334 14.8159 1.48258 14.6667 1.66668 14.6667H2.33334C2.51744 14.6667 2.66668 14.8159 2.66668 15V15.6667C2.66668 15.8508 2.51744 16 2.33334 16H1.66668C1.48258 16 1.33334 15.8508 1.33334 15.6667V15ZM1.66668 17.3333C1.48258 17.3333 1.33334 17.4826 1.33334 17.6667V18.3333C1.33334 18.5174 1.48258 18.6667 1.66668 18.6667H2.33334C2.51744 18.6667 2.66668 18.5174 2.66668 18.3333V17.6667C2.66668 17.4826 2.51744 17.3333 2.33334 17.3333H1.66668ZM2.66668 16.3333C2.66668 16.1492 2.81592 16 3.00001 16H3.66668C3.85077 16 4.00001 16.1492 4.00001 16.3333V17C4.00001 17.1841 3.85077 17.3333 3.66668 17.3333H3.00001C2.81592 17.3333 2.66668 17.1841 2.66668 17V16.3333ZM3.00001 13.3333C2.81592 13.3333 2.66668 13.4826 2.66668 13.6667V14.3333C2.66668 14.5174 2.81592 14.6667 3.00001 14.6667H3.66668C3.85077 14.6667 4.00001 14.5174 4.00001 14.3333V13.6667C4.00001 13.4826 3.85077 13.3333 3.66668 13.3333H3.00001ZM2.66668 11C2.66668 10.8159 2.81592 10.6667 3.00001 10.6667H3.66668C3.85077 10.6667 4.00001 10.8159 4.00001 11V11.6667C4.00001 11.8508 3.85077 12 3.66668 12H3.00001C2.81592 12 2.66668 11.8508 2.66668 11.6667V11ZM3.00001 8C2.81592 8 2.66668 8.14924 2.66668 8.33334V9C2.66668 9.1841 2.81592 9.33334 3.00001 9.33334H3.66668C3.85077 9.33334 4.00001 9.1841 4.00001 9V8.33334C4.00001 8.14924 3.85077 8 3.66668 8H3.00001ZM2.66668 5.66667C2.66668 5.48257 2.81592 5.33334 3.00001 5.33334H3.66668C3.85077 5.33334 4.00001 5.48257 4.00001 5.66667V6.33334C4.00001 6.51743 3.85077 6.66667 3.66668 6.66667H3.00001C2.81592 6.66667 2.66668 6.51743 2.66668 6.33334V5.66667ZM3.00001 2.66667C2.81592 2.66667 2.66668 2.81591 2.66668 3V3.66667C2.66668 3.85076 2.81592 4 3.00001 4H3.66668C3.85077 4 4.00001 3.85076 4.00001 3.66667V3C4.00001 2.81591 3.85077 2.66667 3.66668 2.66667H3.00001Z" fill="#FFCD4B"/>
</g>
</g>
<defs>
<clipPath id="clip0_5138_1140">
<rect width="28" height="20" fill="white"/>
</clipPath>
</defs>
</svg>

<svg xmlns="http://www.w3.org/2000/svg" width="28" height="20" fill="none" viewBox="0 0 28 20"><g clip-path="url(#a)"><rect width="28" height="20" fill="#fff" rx="2"/><mask id="b" width="28" height="20" x="0" y="0" maskUnits="userSpaceOnUse" style="mask-type:luminance"><rect width="28" height="20" fill="#fff" rx="2"/></mask><g mask="url(#b)"><path fill="#30c6e0" d="M0 0h28v20H0z"/><circle cx="14" cy="10" r="4" fill="#ffcd4b"/><path fill="#ffcd4b" fill-rule="evenodd" d="M12.368 17.15 14 14.714l1.632 2.436.413-2.903 2.527 1.487-.887-2.794 2.922.243-2.012-2.133L21.333 10l-2.738-1.049 2.012-2.133-2.922.243.887-2.794-2.527 1.487-.413-2.903L14 5.286 12.368 2.85l-.413 2.903-2.527-1.487.887 2.795-2.922-.243 2.012 2.133L6.667 10l2.738 1.049-2.012 2.133 2.922-.243-.887 2.795 2.527-1.487zM14 14.667c2.577 0 4.667-2.089 4.667-4.667S16.577 5.333 14 5.333 9.333 7.423 9.333 10s2.09 4.667 4.667 4.667m-12.667-13a.333.333 0 0 1 .333-.333h.667a.333.333 0 0 1 .333.333v.667a.333.333 0 0 1-.333.333h-.667a.333.333 0 0 1-.333-.333zm0 2.667A.333.333 0 0 1 1.667 4h.667a.333.333 0 0 1 .333.333V5a.333.333 0 0 1-.333.333h-.667A.333.333 0 0 1 1.333 5zm.333 2.333A.333.333 0 0 0 1.333 7v.667c0 .184.149.333.333.333h.667a.333.333 0 0 0 .333-.333V7a.333.333 0 0 0-.333-.333zm-.333 3a.333.333 0 0 1 .333-.333h.667a.333.333 0 0 1 .333.333v.667a.333.333 0 0 1-.333.333h-.667a.333.333 0 0 1-.333-.333zM1.667 12a.333.333 0 0 0-.333.333V13c0 .184.149.333.333.333h.667A.333.333 0 0 0 2.667 13v-.667A.333.333 0 0 0 2.333 12zm-.333 3a.333.333 0 0 1 .333-.333h.667a.333.333 0 0 1 .333.333v.667a.333.333 0 0 1-.334.333h-.667a.333.333 0 0 1-.333-.333zm.333 2.333a.333.333 0 0 0-.333.333v.667c0 .184.149.333.333.333h.667a.333.333 0 0 0 .333-.333v-.667a.333.333 0 0 0-.333-.333zm1-1A.333.333 0 0 1 3 16h.667c.184 0 .333.149.333.333V17a.333.333 0 0 1-.333.333H3A.333.333 0 0 1 2.667 17zm.333-3a.333.333 0 0 0-.333.333v.667c0 .184.149.333.333.333h.667A.333.333 0 0 0 4 14.333v-.667a.333.333 0 0 0-.333-.333zM2.667 11A.333.333 0 0 1 3 10.667h.667c.184 0 .333.149.333.333v.667a.333.333 0 0 1-.333.333H3a.333.333 0 0 1-.333-.333zM3 8a.333.333 0 0 0-.333.333V9c0 .184.149.333.333.333h.667A.333.333 0 0 0 4 9v-.667A.333.333 0 0 0 3.667 8zm-.333-2.333A.333.333 0 0 1 3 5.333h.667c.184 0 .333.149.333.333v.667a.333.333 0 0 1-.333.333H3a.333.333 0 0 1-.333-.333zm.333-3A.333.333 0 0 0 2.667 3v.667c0 .184.149.333.333.333h.667A.333.333 0 0 0 4 3.667V3a.333.333 0 0 0-.333-.333z" clip-rule="evenodd"/></g></g><defs><clipPath id="a"><path fill="#fff" d="M0 0h28v20H0z"/></clipPath></defs></svg>
